X:141
T: Tongyang xifu ku nan dang
N: C1637
O: China, bei Hebei, Qinghe
S: IV, 61]
R: Xiaodiao, Mengjiangn diao. Fun ku]
M: 2/4
L: 1/16
K: Eb
e2ecB4 | e2ecB4 | B2e2e2G2 | F2E2F4
B2G2B4 | B2C2E4 | F2GFE2C2 | B,8
E2C2E4 | F2G2F4 | B2G2F2E2 | C8
e2B2e4 | B2B2G2F2 | E2C2B2G2 | F4F2FC | B,8
G2F2G2E2 | F8 | e2B2e4 | B2B2G2F2 | E2C2B2G2 | F4F2FC | B,8

